X: 19
T:Mon habit
R:Bourre  2 temps
C:Trad.
O:France
A:Centre
S:80 airs  danser du centre France - La Chavanne - 1991
Z:Transcrit et/ou corrig par Michel BELLON - 2005-05-15
Z:Pour toute observation mailto:galouvielle@free.fr
M:2/4
L:1/8
K:Bb
G | c>d ef | gf g/2f/2g/2a/2 | b>b gf | g3e | c>d ef | gf g2 | b2gf | g3 ::
K:Eb
g | a>a fe | d2 ff | g>g ed | e2 cg | a>a fe | d2 ff | g>g ed | c3 :|
%%footer $D   Galouvielle-MBe 2005 \nBourre  2 temps France
